apps/web/src/media/svg/event.svg

<svg width="25" height="22" viewBox="0 0 25 22" fill="none" xmlns="http://www.w3.org/2000/svg">
<path d="M16.46 1H2.5C1.94772 1 1.5 1.44771 1.5 2V6.08696C1.5 6.63924 1.96285 7.06347 2.48642 7.23922C5.38394 8.21186 4.89675 13.5509 2.46862 14.6965C1.96913 14.9322 1.5 15.3608 1.5 15.913V20C1.5 20.5523 1.94772 21 2.5 21H16.46M16.46 1H22.5C23.0523 1 23.5 1.44772 23.5 2V6.08696C23.5 6.63924 23.0309 7.0678 22.5314 7.30346C20.1032 8.44907 19.6161 13.7881 22.5136 14.7608C23.0372 14.9365 23.5 15.3608 23.5 15.913V20C23.5 20.5523 23.0523 21 22.5 21H16.46M16.46 1V21" stroke="white" stroke-width="1.70261"/>
</svg>

<svg width="25" height="22" viewBox="0 0 25 22" fill="none" xmlns="http://www.w3.org/2000/svg"><path d="M16.46 1H2.5a1 1 0 0 0-1 1v4.087c0 .552.463.976.986 1.152 2.898.973 2.41 6.312-.017 7.458-.5.235-.969.664-.969 1.216V20a1 1 0 0 0 1 1h13.96m0-20h6.04a1 1 0 0 1 1 1v4.087c0 .552-.47.98-.969 1.216-2.428 1.146-2.915 6.485-.017 7.458.523.176.986.6.986 1.152V20a1 1 0 0 1-1 1h-6.04m0-20v20" stroke="#fff" stroke-width="1.703"/></svg>
